X: 1
T: Mrs. O'Sullivan's
R: jig
S: Fiddle Hell Online 2022-3-26 handout for Fiddle Hell jam session
B: the Portland Collection 3 p.142
Z: 2022 John Chambers <jc:trillian.mit.edu>
M: 6/8
L: 1/8
K: C
|:\
"C"EGG GED | EGG c2B | "F"ABA AGA | "G"cde e2d ||\
"Am"cde g2a | "G"ged c2d | "F"eaa e2d | cAA [1 AGD :|2 Acd ||
|:\
"C"egg ged | egg ged | "F"eaa aga | "G"bag a2B ||\
"Am"cde g2a | "C/G"ged c2d | "F"eaa e2d | cAA [1 Acd :|2 A3 |]
